X: 10651
T: Down North
R: reel
M: 4/4
K: Amajor
|:A,CEA cABA|GBEG Acec|dfBd caec|aecA BAGB|
AA,CE AcBA|GBEG Acec|dafd ceAc|1 BEGB A2 z2:|2 BEGB A2 fg||
|:aAAg AAfg|agaf ecAc|BBfB BgBB|ae (3fga gefg|
aAAg AAfg|agaf ecAc|BBfB BgBB|1 fefg aefg:|2 fefg a2 z2||

